Adwaita++-Light/panel/22/qjoypad-tray.svg

<svg height="22" width="22" xmlns="http://www.w3.org/2000/svg">
  <path d="m6.0249899 3.0000745v.00195c-2.4887083 0-4.3597989 2.0010688-4.4906099 4.4804688l-.4980886 9.4609407c-.3150264 1.85 1.482765 3.017141 2.9943906.994141.9425788-1.279 2.9689984-3.9375 2.9689984-3.9375l8.0006696.04102 2.988531 4.021484c1.499025 2.012 3.186861.357874 2.996345-1.003906l-.496136-9.4746141c.000784-.034624.0098-.066745.0098-.1015625-.00003-2.4824-2.002332-4.4824219-4.490641-4.4824219zm-1.0254769 2h2.0001674v2h2.0001674v2.0000003h-2.0001674v2.0000002h-2.0001674v-2.0000002h-2.0001674v-2.0000003h2.0001674zm11.000921 0a1.0000837 1 0 0 1 1.000083 1 1.0000837 1 0 0 1 -1.000083 1 1.0000837 1 0 0 1 -1.000084-1 1.0000837 1 0 0 1 1.000084-1zm-2.000168 2a1.0000837 1 0 0 1 1.000084 1 1.0000837 1 0 0 1 -1.000084 1.0000003 1.0000837 1 0 0 1 -1.000083-1.0000003 1.0000837 1 0 0 1 1.000083-1zm4.000335 0a1.0000837 1 0 0 1 1.000084 1 1.0000837 1 0 0 1 -1.000084 1.0000003 1.0000837 1 0 0 1 -1.000084-1.0000003 1.0000837 1 0 0 1 1.000084-1zm-2.000167 2.0000003a1.0000837 1 0 0 1 1.000083 1.0000002 1.0000837 1 0 0 1 -1.000083 1 1.0000837 1 0 0 1 -1.000084-1 1.0000837 1 0 0 1 1.000084-1.0000002z" fill="#444"/>
</svg>

<svg xmlns="http://www.w3.org/2000/svg" width="22" height="22" version="1.1">
 <defs>
  <style id="current-color-scheme" type="text/css">
   .ColorScheme-Text { color:#444444; } .ColorScheme-Highlight { color:#4285f4; }
  </style>
 </defs>
 <path style="fill:currentColor" class="ColorScheme-Text" d="m 6.0249899,3.0000745 v 0.00195 c -2.4887083,0 -4.3597989,2.0010688 -4.4906099,4.4804688 L 1.0362914,16.943434 c -0.3150264,1.85 1.482765,3.017141 2.9943906,0.994141 0.9425788,-1.279 2.9689984,-3.9375 2.9689984,-3.9375 l 8.0006696,0.04102 2.988531,4.021484 c 1.499025,2.012 3.186861,0.357874 2.996345,-1.003906 L 20.48909,7.5840589 c 7.84e-4,-0.034624 0.0098,-0.066745 0.0098,-0.1015625 -3e-5,-2.4824 -2.002332,-4.4824219 -4.490641,-4.4824219 z m -1.0254769,2 h 2.0001674 v 2 H 8.9998478 V 9.0000748 H 6.9996804 V 11.000075 H 4.999513 V 9.0000748 H 2.9993456 V 7.0000745 H 4.999513 Z m 11.000921,0 a 1.0000837,1 0 0 1 1.000083,1 1.0000837,1 0 0 1 -1.000083,1 1.0000837,1 0 0 1 -1.000084,-1 1.0000837,1 0 0 1 1.000084,-1 z m -2.000168,2 a 1.0000837,1 0 0 1 1.000084,1 1.0000837,1 0 0 1 -1.000084,1.0000003 1.0000837,1 0 0 1 -1.000083,-1.0000003 1.0000837,1 0 0 1 1.000083,-1 z m 4.000335,0 a 1.0000837,1 0 0 1 1.000084,1 1.0000837,1 0 0 1 -1.000084,1.0000003 1.0000837,1 0 0 1 -1.000084,-1.0000003 1.0000837,1 0 0 1 1.000084,-1 z m -2.000167,2.0000003 a 1.0000837,1 0 0 1 1.000083,1.0000002 1.0000837,1 0 0 1 -1.000083,1 1.0000837,1 0 0 1 -1.000084,-1 1.0000837,1 0 0 1 1.000084,-1.0000002 z"/>
</svg>
